src/assets/img/providers-white/merkur.svg

<svg width="90" height="32" viewBox="0 0 90 32" fill="none" xmlns="http://www.w3.org/2000/svg">
<g clip-path="url(#clip0_4051_6882)">
<path fill-rule="evenodd" clip-rule="evenodd" d="M26.0288 17.1526L33.1672 12.5785L25.3801 12.1166L30.2409 5.77158L22.7115 9.11493L24.394 2.34281L20.1037 6.25231L19.6158 0L15.7511 6.75909L11.7128 0.777556L12.3224 8.17376L5.80652 3.39547L8.72996 10.2009L2.57756 8.87312L8.14933 14.2306L0.330322 15.7625L7.06625 18.0923L1.27439 21.5529L8.97467 20.6103L4.18046 26.8076L11.4782 23.3137L9.99548 31.5757L14.629 25.9678L16.4302 31.4194L18.3546 25.9504L23.0735 31.916L22.2221 23.2746L28.6525 27.4375L25.6885 20.0992L32.5837 19.924L26.0288 17.1526ZM10.4661 12.8559C10.4661 12.8559 11.1481 11.476 12.3006 11.7757C13.4532 12.0755 13.4474 13.48 13.4474 13.48C13.4474 13.48 13.6487 11.8206 12.3586 11.4905C10.912 11.1212 10.4661 12.8559 10.4661 12.8559ZM16.8284 15.497C16.8284 15.497 15.7309 15.481 15.67 15.481L15.6729 15.4883C14.2916 15.3464 14.3944 13.9636 14.3944 13.9636C14.5233 12.2955 16.5171 11.7163 16.5171 11.7163C16.5171 11.7163 17.0905 11.5136 17.1224 11.6237C17.1224 11.6237 17.173 11.6584 17.0282 11.7236C17.0282 11.7236 15.9756 12.0262 15.3964 12.5663C15.3964 12.5663 14.6594 13.2367 14.6594 14.007C14.6594 14.007 14.5884 15.1856 15.7642 15.2841L16.9689 15.3029C16.9689 15.3029 17.2947 15.2421 17.2483 15.6345C17.2483 15.6345 17.1919 15.9951 17.0123 15.9951C17.0123 15.9951 16.8849 15.9545 16.992 15.8213C16.992 15.8213 17.1368 15.4492 16.8284 15.497ZM22.0338 16.5496C22.1931 17.1254 22.5053 17.6473 22.9374 18.0598C22.9374 18.0598 23.0257 18.2669 22.7955 18.2046C22.5646 18.0424 22.3629 17.8421 22.1989 17.6124C22.1989 17.6124 20.4744 21.4669 16.6706 21.27C16.6706 21.27 15.7178 21.2569 15.0199 20.8877C14.2388 20.5505 13.5414 20.0458 12.9768 19.4093C12.4321 18.7983 11.9499 18.1342 11.5376 17.4271C11.3208 17.6019 11.0892 17.7574 10.8454 17.8919C10.6702 17.9585 10.634 17.8991 10.634 17.8991C10.5833 17.8267 10.7281 17.7456 10.7281 17.7456C10.7281 17.7456 11.4492 17.3836 11.9633 16.3976C11.9633 16.3976 11.9908 16.2977 12.082 16.3295C12.082 16.3295 12.1428 16.3556 12.1109 16.4743C12.006 16.7318 11.8801 16.9802 11.7345 17.2171C11.7345 17.2171 16.6329 18.4913 22.0831 17.333C21.9877 17.082 21.9103 16.8246 21.8514 16.5626C21.8514 16.5626 21.8123 16.4584 21.9064 16.4396C21.9064 16.4396 21.9933 16.4178 22.0338 16.5496ZM11.9169 17.5154C11.9169 17.5154 13.6661 20.9543 16.84 20.9905C20.2109 21.0311 21.8847 17.6312 21.8847 17.6312L21.6038 17.6863C19.484 18.1235 16.8212 18.1279 17.5119 18.1018C15.7139 18.1537 13.9167 17.9741 12.1645 17.5675L11.9169 17.5154ZM22.7318 13.9244C22.7318 13.9244 22.7318 12.0855 21.0608 11.9537C19.8503 11.8538 19.5462 13.3119 19.5462 13.3119C19.5462 13.3119 20.0863 12.0985 21.0608 12.1868C22.4697 12.3085 22.7318 13.9244 22.7318 13.9244ZM11.9068 12.8457C11.0916 12.8544 10.7079 15.2942 11.665 15.3825C12.6221 15.4709 12.9175 12.7675 11.9068 12.8457ZM11.4857 13.4217C11.5336 13.3352 11.6003 13.2606 11.6809 13.2034C11.7209 13.1955 11.7619 13.1936 11.8025 13.1976C11.8388 13.2016 11.8741 13.2119 11.9068 13.228C11.8438 13.3785 11.7954 13.5346 11.762 13.6943C11.7189 13.825 11.7105 13.9647 11.7374 14.0997C11.6795 14.155 11.6089 14.1953 11.5318 14.217C11.4999 14.2224 11.4672 14.2215 11.4356 14.2143C11.4041 14.2071 11.3743 14.1937 11.3479 14.175C11.3582 14.0167 11.377 13.8592 11.4043 13.703C11.41 13.6043 11.4378 13.5081 11.4857 13.4217ZM21.6313 14.175C21.6139 13.8463 21.5358 13.4973 21.3533 13.3612C21.3047 13.3219 21.2523 13.2875 21.1969 13.2584C21.1451 13.2433 21.0924 13.2312 21.0391 13.2222C20.2051 13.1701 19.817 15.8112 20.6583 15.9067C21.2664 15.9762 21.6834 14.9366 21.6313 14.175ZM20.832 13.5466C20.7514 13.6038 20.6847 13.6784 20.6368 13.7648C20.5889 13.8513 20.5611 13.9475 20.5555 14.0461C20.5282 14.2019 20.5094 14.359 20.499 14.5167C20.5251 14.536 20.5549 14.5498 20.5865 14.5573C20.6181 14.5647 20.6509 14.5657 20.6829 14.5602C20.76 14.5385 20.8306 14.4982 20.8885 14.4429C20.8616 14.3079 20.8701 14.1682 20.9131 14.0374C20.9465 13.8778 20.995 13.7217 21.0579 13.5712C21.0252 13.5551 20.9899 13.5448 20.9537 13.5408C20.913 13.5367 20.8721 13.5387 20.832 13.5466ZM39.6918 5.74123H37.2215L36.7741 13.9367H38.9794L39.2023 8.92965L40.7951 11.9704H42.2011L43.8344 8.88187L44.0588 13.9411H46.2742L45.8282 5.74123H43.4492L41.5437 9.44657L39.6918 5.74123ZM54.1352 5.74123H47.8424V13.9411H54.2539V11.9038H50.1287V10.7353H53.6357V8.81671H50.1287V7.77852H54.1352V5.74123ZM55.712 5.74123H59.3001C61.4156 5.74123 62.6507 6.96331 62.6507 8.59227C62.6624 9.08171 62.5446 9.56555 62.3092 9.99478C62.0737 10.424 61.729 10.7834 61.3099 11.0364L63.1502 13.9411H60.5091L59.1683 11.562H59.1683C59.0105 11.562 58.8266 11.562 58.6427 11.549C58.4092 11.5366 58.1767 11.5105 57.9462 11.4708V13.9411H55.712V5.74123ZM60.2586 8.64585C60.2586 8.0406 59.8387 7.65978 59.1292 7.65978H57.9462V9.5653C58.3376 9.62506 58.7334 9.65122 59.1292 9.64349C59.8518 9.64349 60.2586 9.23662 60.2586 8.64585ZM72.8082 5.74123V9.78829C72.8082 12.4699 74.0433 14.0858 76.6713 14.0858C79.2197 14.0858 80.5475 12.4163 80.5475 9.78829V5.74123H78.1946V9.86793C78.1946 11.326 77.6834 11.9313 76.6583 11.9313C75.6331 11.9313 75.1596 11.326 75.1596 9.86793V5.74123H72.8082ZM82.149 5.74123H85.737C87.8525 5.74123 89.0876 6.96331 89.0876 8.59227C89.0994 9.08171 88.9816 9.56555 88.7461 9.99478C88.5106 10.424 88.1659 10.7834 87.7468 11.0364L89.5872 13.9411H86.9461L85.6053 11.562C85.4474 11.562 85.2635 11.562 85.0797 11.549C84.8462 11.5366 84.6136 11.5105 84.3832 11.4708V13.9411H82.149V5.74123ZM86.6956 8.64585C86.6956 8.0406 86.2757 7.65978 85.5662 7.65978H84.3832V9.5653C84.7746 9.62506 85.1703 9.65122 85.5662 9.64349C86.2887 9.64349 86.6956 9.23662 86.6956 8.64585ZM66.6369 5.74123H64.2985V13.9411H66.634V10.7744C66.888 10.8069 67.1441 10.8199 67.4 10.8134L69.2824 13.9411H72.1073L69.7095 9.91282C70.8462 9.00639 71.4253 7.63372 71.4891 5.74268H69.1723C69.042 7.52078 68.305 8.72693 67.3044 8.72693C67.0847 8.72652 66.8653 8.71346 66.6471 8.68784L66.6369 5.74123ZM89.5987 16.514H36.7741V17.5406H89.5987V16.514ZM38.4407 27.0016C39.1116 27.3265 39.8501 27.4873 40.5953 27.4708C41.3066 27.4838 42.0116 27.3352 42.6572 27.0364C43.2201 26.7756 43.6935 26.3545 44.0183 25.8259C44.3443 25.27 44.5088 24.6342 44.4932 23.9899V23.6076H41.0181V24.5111H43.4565C43.4169 24.9296 43.2536 25.3269 42.9873 25.6521C42.7167 25.9652 42.3665 26.1994 41.9738 26.3298C41.5283 26.4816 41.0601 26.556 40.5895 26.5499C40.019 26.5646 39.4537 26.4372 38.9446 26.1792C38.4991 25.949 38.1277 25.5976 37.8731 25.1656C37.62 24.7255 37.4899 24.2254 37.4966 23.7177C37.4891 23.2128 37.6214 22.7156 37.8789 22.2813C38.1439 21.8473 38.5306 21.5009 38.9909 21.2851C39.5346 21.0326 40.1293 20.9097 40.7285 20.926C41.2501 20.9146 41.7691 21.0031 42.2576 21.1866C42.6663 21.3443 43.0345 21.5917 43.3348 21.9106L43.9546 21.3256C43.5964 20.8987 43.1418 20.5632 42.6282 20.3468C42.0266 20.1056 41.3823 19.9894 40.7343 20.0051C39.9808 19.9929 39.2344 20.1513 38.5508 20.4684C37.9342 20.7517 37.4101 21.2035 37.0391 21.7716C36.6708 22.3529 36.4814 23.0296 36.4947 23.7177C36.4791 24.4086 36.6556 25.0903 37.0043 25.6869C37.3475 26.2535 37.846 26.7098 38.4407 27.0016ZM46.0744 27.3433L49.6306 20.1151H50.8121L54.322 27.3433H53.21L52.2369 25.293H48.1363L47.1748 27.3433H46.0744ZM48.5765 24.3663H51.8083L50.1982 21.0186L48.5765 24.3663ZM56.7662 20.1151L56.2333 27.3433H57.2353L57.6349 21.8642L60.0965 25.5942H60.9305L63.392 21.7252L63.7975 27.3433H64.811L64.2782 20.1151H63.3167L60.5193 24.6443L57.7276 20.1151H56.7662ZM67.8054 27.3433V20.1151H68.819V27.3433H67.8054ZM72.0914 20.1151V27.3433H73.0818V21.5631L78.086 27.3433H79.0938V20.1151H78.1091V25.8954L73.105 20.1151H72.0914ZM85.6907 27.4708C84.9455 27.4873 84.207 27.3265 83.5361 27.0016C82.9411 26.7102 82.4425 26.2539 82.0997 25.6869C81.751 25.0903 81.5745 24.4086 81.59 23.7177C81.5786 23.029 81.7699 22.3523 82.1403 21.7716C82.511 21.2031 83.0351 20.7513 83.6519 20.4684C84.3355 20.1513 85.082 19.9929 85.8355 20.0051C86.4834 19.9894 87.1278 20.1056 87.7294 20.3468C88.2427 20.5635 88.6973 20.899 89.0557 21.3256L88.4302 21.9164C88.1293 21.5981 87.7613 21.3508 87.3529 21.1924C86.8645 21.0088 86.3455 20.9204 85.8239 20.9318C85.2271 20.9146 84.6345 21.0355 84.0921 21.2851C83.6318 21.5009 83.245 21.8473 82.9801 22.2813C82.7226 22.7156 82.5903 23.2128 82.5978 23.7177C82.5904 24.2254 82.7205 24.7258 82.9743 25.1656C83.2289 25.5976 83.6003 25.949 84.0458 26.1792C84.5548 26.4373 85.1201 26.5647 85.6907 26.5499C86.1613 26.5559 86.6294 26.4815 87.0749 26.3298C87.4677 26.1994 87.8179 25.9652 88.0885 25.6521C88.3548 25.3269 88.5181 24.9296 88.5576 24.5111H86.1077V23.6076H89.5944V23.9899C89.6094 24.6341 89.4449 25.2698 89.1195 25.8259C88.7947 26.3545 88.3213 26.7756 87.7584 27.0364C87.111 27.3361 86.4039 27.4846 85.6907 27.4708Z" fill="white"/>
</g>
<defs>
<clipPath id="clip0_4051_6882">
<rect width="89.3394" height="32" fill="white" transform="translate(0.330322)"/>
</clipPath>
</defs>
</svg>

<svg width="90" height="32" fill="none" xmlns="http://www.w3.org/2000/svg"><g clip-path="url(#a)"><path fill-rule="evenodd" clip-rule="evenodd" d="m26.029 17.153 7.138-4.574-7.787-.462 4.86-6.345-7.528 3.343 1.682-6.772-4.29 3.91L19.616 0 15.75 6.76 11.713.777l.61 7.396-6.516-4.779 2.923 6.806-6.152-1.328 5.571 5.358L.33 15.762l6.736 2.33-5.792 3.46 7.7-.942-4.794 6.198 7.298-3.494-1.483 8.262 4.634-5.608 1.801 5.451 1.925-5.469 4.718 5.966-.85-8.641 6.43 4.163-2.964-7.339 6.895-.175-6.555-2.771Zm-15.563-4.297s.682-1.38 1.835-1.08c1.152.3 1.146 1.704 1.146 1.704s.202-1.66-1.088-1.99c-1.447-.369-1.893 1.366-1.893 1.366Zm6.362 2.641-1.158-.016.003.007c-1.381-.142-1.279-1.524-1.279-1.524.13-1.668 2.123-2.248 2.123-2.248s.573-.202.605-.092c0 0 .051.034-.094.1 0 0-1.052.302-1.632.842 0 0-.737.67-.737 1.441 0 0-.07 1.179 1.105 1.277l1.205.019s.326-.06.28.331c0 0-.057.361-.237.361 0 0-.127-.04-.02-.174 0 0 .145-.372-.164-.324Zm5.206 1.053c.16.575.471 1.097.903 1.51 0 0 .089.207-.142.145a2.496 2.496 0 0 1-.596-.593s-1.725 3.855-5.528 3.658c0 0-.953-.013-1.651-.382a5.808 5.808 0 0 1-2.043-1.479 12.256 12.256 0 0 1-1.44-1.982c-.216.175-.448.33-.692.465-.175.067-.211.007-.211.007-.05-.072.094-.153.094-.153s.721-.362 1.235-1.348c0 0 .028-.1.119-.069 0 0 .06.027.029.145-.105.258-.23.506-.377.743 0 0 4.899 1.274 10.35.116a5.666 5.666 0 0 1-.233-.77s-.039-.105.055-.123c0 0 .087-.022.128.11Zm-10.117.965s1.75 3.44 4.923 3.476c3.37.04 5.045-3.36 5.045-3.36l-.281.055c-2.12.438-4.783.442-4.092.416a20.979 20.979 0 0 1-5.348-.535l-.247-.052Zm10.815-3.59s0-1.84-1.671-1.971c-1.21-.1-1.515 1.358-1.515 1.358s.54-1.213 1.515-1.125c1.409.122 1.67 1.737 1.67 1.737Zm-10.825-1.08c-.815.01-1.2 2.45-.242 2.537.957.089 1.253-2.614.242-2.536Zm-.421.577a.66.66 0 0 1 .195-.219.417.417 0 0 1 .122-.005.314.314 0 0 1 .104.03 2.57 2.57 0 0 0-.145.466.797.797 0 0 0-.025.406.49.49 0 0 1-.205.117.247.247 0 0 1-.184-.042 4.4 4.4 0 0 1 .056-.472.659.659 0 0 1 .082-.281Zm10.145.753c-.017-.329-.095-.678-.278-.814a.955.955 0 0 0-.156-.103 1.392 1.392 0 0 0-.158-.036c-.834-.052-1.222 2.59-.38 2.685.607.07 1.024-.97.972-1.732Zm-.799-.628a.66.66 0 0 0-.277.5 4.407 4.407 0 0 0-.056.47.24.24 0 0 0 .184.043.49.49 0 0 0 .206-.117.799.799 0 0 1 .024-.406c.034-.16.082-.315.145-.466a.314.314 0 0 0-.104-.03.414.414 0 0 0-.122.006Zm18.86-7.806h-2.47l-.448 8.196h2.205l.223-5.007 1.593 3.04h1.406l1.633-3.088.225 5.06h2.215l-.446-8.2H43.45l-1.905 3.705-1.852-3.706Zm14.443 0h-6.293v8.2h6.412v-2.037h-4.125v-1.169h3.507V8.817h-3.507V7.779h4.006V5.74Zm1.577 0H59.3c2.116 0 3.35 1.222 3.35 2.851a2.779 2.779 0 0 1-1.34 2.444l1.84 2.905h-2.64l-1.342-2.379c-.157 0-.341 0-.525-.013a5.967 5.967 0 0 1-.697-.078v2.47h-2.234v-8.2Zm4.547 2.905c0-.605-.42-.986-1.13-.986h-1.183v1.905c.392.06.787.086 1.183.078.723 0 1.13-.406 1.13-.997Zm12.55-2.905v4.047c0 2.682 1.234 4.298 3.862 4.298 2.549 0 3.876-1.67 3.876-4.298V5.741h-2.352v4.127c0 1.458-.512 2.063-1.537 2.063s-1.498-.605-1.498-2.063V5.74h-2.352Zm9.34 0h3.588c2.116 0 3.35 1.222 3.35 2.851a2.777 2.777 0 0 1-1.34 2.444l1.84 2.905h-2.64l-1.342-2.379c-.158 0-.342 0-.525-.013a5.965 5.965 0 0 1-.697-.078v2.47H82.15v-8.2Zm4.547 2.905c0-.605-.42-.986-1.13-.986h-1.183v1.905c.392.06.787.086 1.183.078.723 0 1.13-.406 1.13-.997ZM66.636 5.74H64.3v8.2h2.335v-3.167c.254.033.51.046.766.04l1.882 3.127h2.825L69.71 9.913c1.136-.907 1.715-2.28 1.78-4.17h-2.318c-.13 1.778-.867 2.984-1.868 2.984-.22 0-.439-.014-.657-.04l-.01-2.946ZM89.6 16.514H36.774v1.027H89.6v-1.027ZM38.44 27.002c.67.325 1.41.485 2.154.469a4.705 4.705 0 0 0 2.062-.435 3.154 3.154 0 0 0 1.361-1.21c.326-.556.49-1.192.475-1.836v-.382h-3.475v.903h2.438c-.04.419-.202.816-.469 1.141-.27.313-.62.547-1.013.678a4.126 4.126 0 0 1-1.384.22 3.443 3.443 0 0 1-1.645-.37 2.663 2.663 0 0 1-1.072-1.014 2.83 2.83 0 0 1-.376-1.448 2.737 2.737 0 0 1 .382-1.437c.265-.434.652-.78 1.112-.996a3.875 3.875 0 0 1 1.737-.359 4.094 4.094 0 0 1 1.53.26c.408.158.776.406 1.077.725l.62-.585a3.511 3.511 0 0 0-1.327-.98 4.778 4.778 0 0 0-1.894-.34 4.997 4.997 0 0 0-2.183.462 3.601 3.601 0 0 0-1.512 1.304 3.51 3.51 0 0 0-.544 1.946c-.016.69.16 1.372.51 1.969a3.463 3.463 0 0 0 1.436 1.315Zm7.633.341 3.557-7.228h1.181l3.51 7.228H53.21l-.973-2.05h-4.1l-.962 2.05h-1.1Zm2.503-2.977h3.231l-1.61-3.347-1.621 3.347Zm8.19-4.25-.534 7.227h1.002l.4-5.479 2.462 3.73h.834l2.461-3.869.405 5.618h1.014l-.533-7.228h-.961l-2.798 4.53-2.791-4.53h-.962Zm11.038 7.227v-7.228h1.014v7.228h-1.014Zm4.286-7.228v7.228h.99v-5.78l5.005 5.78h1.008v-7.228h-.985v5.78l-5.004-5.78h-1.014Zm13.6 7.356a4.704 4.704 0 0 1-2.155-.47 3.453 3.453 0 0 1-1.436-1.314 3.737 3.737 0 0 1-.51-1.97 3.51 3.51 0 0 1 .55-1.945c.371-.569.895-1.02 1.512-1.304a4.997 4.997 0 0 1 2.183-.463c.648-.016 1.293.1 1.894.342a3.52 3.52 0 0 1 1.327.979l-.626.59a2.95 2.95 0 0 0-1.077-.724 4.091 4.091 0 0 0-1.53-.26 3.875 3.875 0 0 0-1.73.353c-.461.216-.848.562-1.113.996-.257.435-.39.932-.382 1.437a2.815 2.815 0 0 0 .376 1.448c.255.432.626.783 1.072 1.013a3.44 3.44 0 0 0 1.645.37 4.13 4.13 0 0 0 1.384-.22c.393-.13.743-.364 1.013-.677.267-.325.43-.722.47-1.14h-2.45v-.904h3.486v.382c.015.644-.15 1.28-.474 1.836-.325.529-.799.95-1.362 1.21-.647.3-1.354.449-2.067.435Z" fill="#fff"/></g><defs><clipPath id="a"><path fill="#fff" transform="translate(.33)" d="M0 0h89.339v32H0z"/></clipPath></defs></svg>
